X:1
T: The Hare in the Corn
C:
R:Jig
Q:180
K:G
M:6/8
L:1/16
|:B2|B2A2B2 c4A2|B2A2B2 c4A2|B2d2B2 A2F2D2|E2F2E2 E4c2|B2A2B2 c4A2|B2A2B2 c4A2|B2d2B2 A2F2A2|D2E2D2 D4:|
|:G2|F4A2 A2F2A2|B2G2B2 A2F2A2|B2d2B2 A2F2D2|E2F2E2 E4G2|F4A2 A2F2A2|B2G2B2 A2F2A2|B2d2B2 A2F2A2|D2E2D2D4:|
|:g2|f2d2d2 e2d2d2|f2d2d2 d4A2|B2d2B2 A2F2D2|E2D2E2 E4g2|f2d2d2 e2d2d2|f2d2B2 A2F2A2|D2F2A2 d2e2g2|f2d2d2 d4:|
